src/pos-icons/xml.svg

<svg height="24" viewBox="0 0 24 24" width="24" xmlns="http://www.w3.org/2000/svg"><path d="m12.89 3 1.96.4-3.74 17.6-1.96-.4zm6.7 9-3.59-3.59v-2.83l6.42 6.42-6.42 6.41v-2.83zm-18.01 0 6.42-6.42v2.83l-3.59 3.59 3.59 3.58v2.83z"/></svg>

<?xml version="1.0" encoding="UTF-8"?><!DOCTYPE svg PUBLIC "-//W3C//DTD SVG 1.1//EN" "http://www.w3.org/Graphics/SVG/1.1/DTD/svg11.dtd"><svg xmlns="http://www.w3.org/2000/svg" xmlns:xlink="http://www.w3.org/1999/xlink" version="1.1" id="mdi-xml" width="24" height="24" viewBox="0 0 24 24"><path d="M12.89,3L14.85,3.4L11.11,21L9.15,20.6L12.89,3M19.59,12L16,8.41V5.58L22.42,12L16,18.41V15.58L19.59,12M1.58,12L8,5.58V8.41L4.41,12L8,15.58V18.41L1.58,12Z" /></svg>
